X:409
T:Avant-deux violette
Z:Jack Campin, http://www.campin.me.uk/
F:Jack Campin's Nine-Note Tunebook
% last edit 03-02-2013
M:2/4
L:1/8
Q:1/4=126
K:EMin
  B2    BA|B2 G2|A>B   AF|G2 E2:|
|:EF/G/ AB|GF GE|EF/G/ AB|GF E2:|

